svgs/sharp-solid/stairs.svg

<svg xmlns="http://www.w3.org/2000/svg" viewBox="0 0 576 512"><!--! Font Awesome Pro 6.6.0 by @fontawesome - https://fontawesome.com License - https://fontawesome.com/license (Commercial License) Copyright 2024 Fonticons, Inc. --><path d="M384 32l32 0 128 0 32 0 0 64-32 0-96 0 0 96 0 32-32 0-96 0 0 96 0 32-32 0-96 0 0 96 0 32-32 0L32 480 0 480l0-64 32 0 96 0 0-96 0-32 32 0 96 0 0-96 0-32 32 0 96 0 0-96 0-32z"/></svg>

<svg xmlns="http://www.w3.org/2000/svg" viewBox="0 0 576 512"><!--! Font Awesome Pro 6.4.0 by @fontawesome - https://fontawesome.com License - https://fontawesome.com/license (Commercial License) Copyright 2023 Fonticons, Inc. --><path d="M384 32h32H544h32V96H544 448v96 32H416 320v96 32H288 192v96 32H160 32 0V416H32h96V320 288h32 96V192 160h32 96V64 32z"/></svg>
